X:149
T:Old Pigeon on the Gate, The  
B:CRE1.162 (Sean-Cholur ar an nGeata)
F:file ID: cre.1/149old_pig
S:Sonny Brogan
M:C
L:1/8
Q:180
R:reel
K:G
G2 (3BAG dGBG|F2 (3AGF dFAF|G2 (3BAG dGBG|cBAG FADF|
G2 (3BAG dGBG|F2 (3AGF dFAF|G2 (3BAG dGBG|cBAG FAD2||
(3B^cd gd BGG2|ABcd edd2|Bdgd BGG2|cBAG FAD2|
(3B^cd gd BGG2|ABcd e3d|(3B^cd gd BABd|cBAG FAD2||G8||

%%%

